X: 33
T:Out on the Ocean
M:6/8
L:1/8
R:Jig
K:G
F2 A BAG | BdB A2 B | GED G2 A | BAB GED |
B2 B BAG | BdB A2 B |  GED G2 A |  BGF G :||
Bd | efe edB | efe edB | ~d3 dBA | ~d3 dBA |
G2 A B2 d | ege dBA | GED G2 A | BGF GBd |
 efe edB | efe edB | ~d3 def | gfe dBA | 
G2 A B2 d ege dBA GED G2 A BGF G2 ||
